X: 70
T:Sir Sidney Smith
M:4/4
L:1/8
Q:1/8=170
K:G
Bc|d2dd d2dd|e2d2 c2B2|dcBc A2dc|BcAB G2dc|BdBd AdAd|GdGd GFdc
||
Bcde d2^c2|d6||
AG|FDFA dABc|B6 dc|BGBd gdef|e6 gf|egeg dgdg|cgcg BgBg|eg
eg dgdg|cgcg BgBg|e2d2 c2 B2|
e2d2 c2 B2|e2d2 c2 B2|B4 A2 Bc|d2dd d2dd|e2d2 c2B2|dcBc A2dc
|
BcAB  G2dc|BdBd AdAd|GdGd FdFd|EdEd FdFd|GdGd AdAd|EdEd FdFd|
GdGd AdAd|
cedc  B2A2|G6||
